X:163
T:Wildboars Maggot THO1.163
M:C
L:1/8
Z:vmp. Peter Dunk 2012.from a transcription by Fynn Titford-Mock 2006
B:Thompson's Compleat Collection of 200 Favourite Country Dances Vol.I,1758
Q:1/4=140
K:Bb
FE|DF B2- Bdfd|Tc>BTc>d c2 de|\
f3 g TfdTcB|ABcd c2 FE|DF B2- TBdfd|
=efga b2 ag|af=eg c2(g=e)|f2 F4::\
cB|ABcd e2 dc|gecf {B}A2 d^f|
Tg3 a bg^fa|Td2 ga b2 ag|Tf2 ed gecF|\
dBGc {B}A2 ga|bfce G2 BA|B2 B,4:|

